src/images/linkedin.svg

<svg width="25" height="25" viewBox="0 0 25 25" fill="none" xmlns="http://www.w3.org/2000/svg">
<rect width="25" height="25" rx="5" fill="#282A33"/>
<path d="M7.58143 20H4.26429V9.31762H7.58143V20ZM5.92107 7.86044C4.86036 7.86044 4 6.98185 4 5.92111C4 5.4116 4.2024 4.92296 4.56267 4.56268C4.92294 4.2024 5.41157 4 5.92107 4C6.43057 4 6.9192 4.2024 7.27947 4.56268C7.63974 4.92296 7.84214 5.4116 7.84214 5.92111C7.84214 6.98185 6.98143 7.86044 5.92107 7.86044ZM19.9964 20H16.6864V14.7999C16.6864 13.5606 16.6614 11.9712 14.9618 11.9712C13.2371 11.9712 12.9729 13.3177 12.9729 14.7106V20H9.65929V9.31762H12.8407V10.7748H12.8871C13.33 9.93549 14.4118 9.04976 16.0257 9.04976C19.3829 9.04976 20 11.2605 20 14.132V20H19.9964Z" fill="white"/>
</svg>

<svg xmlns="http://www.w3.org/2000/svg" width="25" height="25" fill="none" viewBox="0 0 25 25">
	<rect width="25" height="25" fill="#282A33" rx="5"/>
	<path fill="#fff" d="M7.581 20H4.264V9.318h3.317V20ZM5.921 7.86C4.861 7.86 4 6.982 4 5.921a1.921 1.921 0 0 1 3.842 0c0 1.06-.86 1.94-1.92 1.94ZM19.996 20h-3.31v-5.2c0-1.24-.025-2.829-1.724-2.829-1.725 0-1.99 1.347-1.99 2.74V20H9.66V9.318h3.182v1.457h.046c.443-.84 1.525-1.725 3.139-1.725 3.357 0 3.974 2.21 3.974 5.082V20h-.004Z"/>
</svg>
